!!!COM: Bach, Johann Sebastian
!!!OTL: Inventio No. 3
!! Two-part invention: Inventio 3; in D major; BWV 774
!! Bach-Gesellschaft edition, pp.3-4
!! Performance duration: 1:14; performance tempo: 71.8 quarter-notes per minute.
!! (Andras Schiff, piano, "Two-Part Inventions BWV 772a-786; Three-part
!! Inventions BWV 787-801" Decca 411 974-2)
**kern	**kern
*clefF4	*clefG2
*k[f#c#]	*k[f#c#]
*D:	*D:
*M3/8	*M3/8
*MM71.8	*MM71.8
8r	16d
.	16e
=1	=1
4.r	16f#
.	{16e
.	16g
.	16f#
.	16e
.	16d}
=2	=2
8r	16a
.	{16g
8r	16f#
.	16e
16D	16f#
16E	16d}
=3	=3
16F#	8a
{16E	.
16G	8b
16F#	.
16E	16cc#O
16D}	16dd
=4	=4
16A	8cc#M
{16G	.
16F#	{16b
16E	16a}
16F#	16cc#
16D}	16dd
=5	=5
8A	16ee'
.	{16cc#
8AA	16ff#
.	16dd
8A	16cc#
.	16b}
=6	=6
8A	16ee
.	{16cc#
8AA	16dd
.	16b
8A	16a
.	16g#}
=7	=7
8A	16ee
.	{16cc#
8AA	16ff#
.	16dd
8A	16cc#
.	16b}
=8	=8
8A	16ee
.	{16cc#
8AA	16dd
.	16b
8A	16a
.	16g#}
=9	=9
8A	16cc#
.	{16b
8B	16dd
.	16cc#
8c#	16b
.	16a}
=10	=10
16d	8ff#
{16c#	.
16e	8g#
16d	.
16c#	[8a
16B}	.
=11	=11
16c#	16aS]
16d	16b
8e	8.b
8E	.
.	16a
=12	=12
16A	4a
{16E	.
16F#	.
16G#	.
16A	8r
16B}	.
=13	=13
16c#	8r
{16B	.
16d	8ee
16c#	.
16B	[8aa
16A}	.
=14	=14
8e	16aa]
.	{16b
8E	16cc#
.	16dd#
8r	16ee
.	16ff#}
=15	=15
8r	16gg
.	{16ff#
8B	16aa
.	16gg
[8e	16ff#
.	16ee}
=16	=16
16e]	8bb
16F#	.
16G#	8b
16A#	.
16B	8r
16c#	.
=17	=17
16d	8r
16c#	.
16e	8f#
16d	.
16c#	[8b
16B	.
=18	=18
8f#	16b]
.	16a#
8F#	16b
.	16cc#
8e	16dd
.	16ee
=19	=19
8d	16ff#
.	{16ee
16b	16gg
16a#	16ff#
8b	16ee
.	16dd}
=20	=20
8c#	16ee
.	{16dd
16a#	16ff#
16g#	16ee
8a#	16dd
.	16cc#}
=21	=21
16b	16dd
{16an	{16cc#
16gn	16ee
16f#	16dd
16e	16cc#
16d}	16b}
=22	=22
16e	8cc#
{16d	.
16f#	8a#O
16e	.
16d	[8b
16c#}	.
=23	=23
16d	16b]
16e	16cc#
8f#	8.cc#M
8F#	.
.	[16b
=24	=24
8B	16b]
.	{16f#
8F#	16g#
.	16a#
8D	16b
.	16cc#}
=25	=25
4BB	{16dd
.	16cc#
.	16ee
.	16dd
8r	16cc#
.	16b}
=26	=26
16r	[4.gg
{16BB	.
16C#	.
16D#	.
16E	.
16F#}	.
=27	=27
16G	4.gg_
{16F#	.
16A	.
16G	.
16F#	.
16E}	.
=28	=28
[4.A	16gg]
.	{16e
.	16f#
.	16g#
.	16a
.	16b}
=29	=29
4.A_	16cc#
.	{16b
.	16dd
.	16cc#
.	16b
.	16a}
=30	=30
16A]	[4.ff#
{16AA	.
16BB	.
16C#	.
16D	.
16E}	.
=31	=31
{16F#	4.ff#_
16E	.
16G	.
16F#	.
16E	.
16D}	.
=32	=32
8.G#	16ff#]
.	{16b
.	16ee
16E	16dd
16F#	16cc#
16G#	16b}
=33	=33
16A	16cc#
{16G#	{16b
16F#	16dd
16E	16cc#
16D	16b
16F#}	16a}
=34	=34
16E	8g#M
{16D	.
16C#	8e
16BB	.
16C#	16a
16AA}	16b
=35	=35
8A	16cc#
.	{16b
8F#	16dd
.	16cc#
8C#	16b
.	16a}
=36	=36
16D	8.ff#
{16C#	.
16E	.
16D	16g#
16C#	16a
16BB}	16g#
=37	=37
16C#	16a
16D	16dd
8E	8.b
8EE	.
.	16a
=38	=38
16AA	8.a
{16C#	.
16D	.
16E	16cc#
16F#	16dd
16G}	16ee
=39	=39
16A	8f#
{16G	.
16B	8g
16A	.
16G	8aS
16F#}	.
=40	=40
16G	8b
{16F#	.
16A	8cc#S
16G	.
16F#	[8dd
16E}	.
=41	=41
16F#	16dd]
{16E	{16cc#
16G	16ee
16F#	16dd
16E	16cc#
16D}	16dd}
=42	=42
8A	{16ee
.	16dd
8AA	16cc#
.	16b
8r	16a
.	16g}
=43	=43
4.r	16f#
.	{16e
.	16g
.	16f#
.	16e
.	16d}
=44	=44
8r	{16a
.	16g
8r	16f#
.	16e
16D	16f#
16E	16d}
=45	=45
16F#	8a
{16E	.
16G	8b
16F#	.
16E	16cc#O
16D}	16dd
=46	=46
16A	8cc#
{16G	.
16F#	8a
16E	.
16F#	8dd
16D}	.
=47	=47
16A	8dd
{16F#	.
16B	8d
16G	.
16F#	8dd
16E}	.
=48	=48
16A	8dd
{16F#	.
16G	8d
16E	.
16D	8dd
16C#}	.
=49	=49
16A	8dd
{16F#	.
16B	8d
16G	.
16F#	8dd
16E}	.
=50	=50
16A	8dd
{16F#	.
16G	8d
16E	.
16D	16dd
16C#}	16ee
=51	=51
8D	16ff#'
.	{16ee
8E	16gg
.	16ff#
8F#	16ee
.	16dd}
=52	=52
16G	8bb
{16F#	.
16A	8cc#
16G	.
16F#	[8dd
16E}	.
=53	=53
16F#	16ddS]
16G	16ee
8A	8.ee
8AA	.
.	16dd
=54	=54
16BB	8dd
{16AA	.
16Cn	8d
16BB	.
16AA	[8g
16GG}	.
=55	=55
[4.D	16g]
.	{16A
.	16B
.	16c#
.	16d
.	16e}
=56	=56
16D]	16f#
{16C#	{16e
16BB	16g
16AA	16f#
16GG	16e
16FF#}	16d}
=57	=57
16GG	8.b
{16FF#	.
16AA	.
16GG	16c#
16FF#	16d
16EE}	16c#
=58	=58
16FF#	16d
16GG	16g
4AA	8.e
.	16d
=59	=59
4DD;	4d;
==	==
*-	*-
!!!CDT: 1685/3//-1750/7/28
!!!OCY: Deutschland
